X:488
T:Monk's March with the Wanders
M:2/2
L:1/8
S:Colin Hume's website,  colinhume.com  - chords can also be printed below the stave.
Q:1/2=110
K:Dm
P:A
|: "Dm"FD3 F4 | "F"cA3 c4 | "F"A2c2 BAGF | "C"E2A2 GEDC |\
"Dm"FD3 F4 | "F"cA3 f4 | "C"e2f2 efed | "Am"c2A2 A4 :|
P:B
|: "F"f3g a2g2 | "F"f2c2 c2A2 | "Gm"B2G2 d3c | "C"B2G2 G2AB |\
"F"cAFA c2BA | "C"GECE G2FE | "Dm"D2D2 "A7"A3G |[1 "Dm"F2D2 D4 :|[2 "Dm"F2D2 D3 ||
M:6/8
Q:3/8=110
P:C
|:E | "Dm"F>ED FGA | "Dm"A>BA d2e | "Bb"fed efe | "Am"cAA A2 :|
P:D
|:G | "F"ABc "C"c2G | "F"ABc "C"c2A | "Gm"Bcd "D7"d2A | "Gm"Bcd "D7"d2e |\
"Bb"fed cBA | "Gm"BAG "Dm"F2E | FGA "A"A>BA |[1 "Dm"FDD D2 :|[2 "Dm"FDD D3 |]

